X:1
T:Quell' è pur il mio core
T:Marco da Gagliano 1582 - 1643
T:Quell' è pur il mio core
T:(C) Wim Looyestijn - 2018. May be freely copied for non-commercial use.
T:(C) Wim Looyestijn - 2018. May be freely copied for non-commercial use.
T:(C) Wim Looyestijn - 2018. May be freely copied for non-commercial use.
T:(C) Wim Looyestijn - 2018. May be freely copied for non-commercial use.
T:(C) Wim Looyestijn - 2018. May be freely copied for non-commercial use.
C:Marco da Gagliano
C:1582 - 1643
Z:(C) Wim Looyestijn - 2018. May be freely copied for non-commercial use.
%%score [ 1 2 3 ] 4
L:1/8
Q:1/4=120
M:4/4
K:C
V:1 alto1 nm="Canto-1" snm="C1"
V:2 alto1 nm="Canto-2" snm="C2"
V:3 tenor nm="Tenor" snm="T"
V:4 bass nm="Basso" snm="BC"
V:1
 x8 | z8 | x8 | z8 | G6 G2 | A6 Ad | c4 B4 | z2 ee c4- | c2 c>d d4 | z eBc ^G2 A2- | A3 ^G A4 | %11
w: ||||Quell' è|pur il mio|co- re,|quell' è pur|_ il mio ben|che più lan- gui- *|* * sco|
 z2 dd d2 AA | B>B AG G3 ^F | G>d cB A4 | G2 ee e2 BB | c>c BA A3 ^G | A>e dc B4 | A8 | z8 | %19
w: che fa me- co il do-|lor se ne gio- i- *|sco, se ne gioi- *|sco, che fa me- co il do-|lor se ne gioi- * *|sco, se ne gio- i-|sco,||
 z2 A2 d2 c/B/A | B2 c/4d/4e/4f/4g d4 | c4 z2 e2 | d3 d c4 | B4 z2 e>d | c2 d>c B4 | A4 z2 A2 | %26
w: fug- gi- te a- * *|mor a- * * * * man-|ti, a-|mor a- mi-|co, o che|fie- ro ne- mi-|co, al-|
 B>d cB e4 | c2 z c e2 d2 | c/B/A/B/ c/e/d/c/ B/A/G/A/ B/d/c/B/ | A4 A2 B2 | c6 c2 | d6 G2 | _B8 | %33
w: lor che vi lu- sin-|ga, al- lor che|ri- * * * * * * * * * * * * * * *|* de con|di- ce i|vo- stri|pian-|
 A6 d2 | c8- | c6 B2 | c2 ^G2 G2 G2 | ^G6 A2 | B4 B4 |: z2 cc e4- | e2 de c4- | c4 B2 B2 | %42
w: ti con|quel|_ ve-|len che dol- ce-|men- te an-|ci- de.|Non cre- de-|* te a i sem- bian-|* ti che|
 d2 G2 A4 | B4 z2 B2 | B>c d4- d>^c | A8- | A4 A2 d2 | c3 c c2 d2 | e6 c2 | d4- dc/B/ A/G/^F/E/ | %50
w: par so- a-|ve ed|è pun- gen- * te e|cru-|* do, e|me- no e dis- ar-|ma- to al-|lor _ _ _ _ _ _ _|
 ^F4 G4 | A8 | B8 :| %53
w: _ ch'è|nu-|do.|
V:2
 x8 | z8 | x8 | D6 D2 | E6 EG | F>G F>G A4- | A4 ^G4 | z2 GG A4 | A3 c B4 | z4 z eBc | B4 A4 | z8 | %12
w: |||Quell' è|pur il mio|co- * * * *|* re,|quell' è pur|il mio ben|che più lan-|gui- sco||
 z2 dd d2 AA | B>B AG G3 ^F | G4 z4 | z2 ee e2 BB | c>c BA A3 ^G | A8 | z2 E2 A2 G/F/E | ^F8 | %20
w: che fa me- co il do-|lor se ne gio- i- sco,|_|che fa me- co il do-|lor se ne gio- i- sco,|_|fug- gi- te a- * *|mor|
 G2 c4 B2 | c2 G2 G4 | G2 G4 ^F2 | G2 d>c B2 c>B | A6 ^G2 | A4 z4 | z2 D2 E>G FE | A4 G2 z G | %28
w: a- man- *|ti, a- mor|a- mi- *|co, o che fie- ro ne-|mi- co,|_|al- lor che vi lu-|sin- ga, al-|
 E2 ^F2 G/F/E/F/ G/B/A/G/ | ^F4 F2 G2 | A6 A2 | A4 G4 | G8 | ^F8 | z2 e2 d4- | d4 d3 c- | %36
w: lor che ri- * * * * * * *|* de con|di- ce i|vo- stri|pian-|ti|con quel|_ ve- len|
 c2 B2 B2 B2 | B6 !courtesy!=F2 | ^G4 G4 |: z4 z2 EE | G6 ^FG | E4 D2 d2 | B2 c4 A2- | A2 ^G2 z4 | %44
w: _ che dol- ce-|men- te an-|ci- de.|Non cre-|de- te a i sem-|bian- ti che|par so- a-|* ve|
 z4 z2 E2 | E>^F G4- G>F | ^F4 F4 | z4 z2 D2 | G3 G G2 A2 | B6 ^c2 | d4- dc/B/ A/G/^F/E/ | %51
w: ed|è pun- gen- * te e|cru- do,|e|me- no e dis- ar-|ma- to al-|lor _ _ _ _ _ _ _|
 ^F2 G2 G3 F | G8 :| %53
w: _ ch'è nu- do.|_|
V:3
 x8 | z8 | x8 | z8 | z8 | z8 | z8 | z2 CC F,4- | F,2 F,E, G,4 | z CG,A, E,4- | E,4 A,4 | z8 | z8 | %13
w: |||||||quell' è pur|_ il mio ben|che più lan- gui-|* sco|||
 z8 | z2 CC C2 ^G,G, | A,>A, G,F, E,4 | A,B,CD E4 | A,8 | z8 | z8 | z8 | z4 z2 C2 | B,3 B, A,4 | %23
w: |che fa me- co il do-|lor se ne gio- i-|sco, se ne gio- i-|sco,||||a-|mor a- mi-|
 G,4 G,>F, E,2 | F,2 D,2 E,4 | A,4 z2 D,2 | G,>B, A,G, C4 | F,2 z A, C2 B,2 | %28
w: co, o che fie-|ro ne- mi-|co, al-|lor che vi lu- sin-|ga, al- lor che|
 A,/B,/C/B,/ A,/C/B,/A,/ G,/A,/B,/A,/ G,/A,/B,/C/ | D4 D2 G,2 | F,6 F,2 | F,4 E,4 | D,8 | D,6 D,2 | %34
w: ri- * * * * * * * * * * * * * * *|* de con|di- ce i|vo- stri|pian-|ti con|
 E,4 ^F,4 | G,8 | z2 E,2 E,2 E,2 | E,4 A,,4 | E,4 E,4 |: z2 A,A, C4- | C2 B,C A,4 | G,6 G,2 | %42
w: quel ve-|len|che dol- ce-|men- te an-|ci- de.|Non cre- de-|* te a i sem- bian-|ti che|
 G,2 E,2 F,4 | E,4 z4 | z8 | z8 | z4 z2 D,2 | A,3 A, A,2 B,2 | C6 A,2 | G,4 E,4 | D,8- | D,8 | %52
w: par so- a-|ve|||e|me- no e dis- ar-|ma- to al-|lor ch'è|nu-||
 G,8 :| %53
w: do.|
V:4
 x8 | z8 | x8 | G,8 | C,6 C,E, | D,8 | E,8 | z2 C,2 F,4- | F,2 F,E, G,4 | z B, G,A, E,4 | %10
 E,4 A,,4 | D,3 E, ^F,4 | G,4 D,4 | G,,4 D,4 | G,,2 C,2 C2 ^G,2 | A,4 E,4 | A,4 E,4 | A,8 | A,,8 | %19
 D,8 | G,2 E,2 G,4 | C,6 C2 | B,4 A,4 | G,4 G,2 E,2 | F,2 D,2 E,4 | A,,4 D,4 | G,4 C,4 | %27
 F,2 A,2 C2 B,2 | A,4 G,4 | D,4 D,2 G,2 | F,6 F,2 | F,4 E,4 | D,8 | D,6 D,2 | E,4 ^F,4 | G,8 | %36
 C,2 E,2 E,2 E,2 | E,4 A,,4 | E,8 |: A,4 C4- | C2 B,C A,4 | G,8 | G,2 E,2 F,4 | E,4 E,4 | E,8 | %45
 ^C,8 | D,8 | A,6 B,2 | C6 A,2 | G,4 E,4 | D,8- | D,8 | G,,8 :| %53

